scalable/apps/org.gnome.Nautilus.svg

<?xml version="1.0" encoding="UTF-8" standalone="no"?>
<!-- Created with Inkscape (http://www.inkscape.org/) -->

<svg
   width="128"
   height="128"
   viewBox="0 0 128 128"
   version="1.1"
   id="svg5"
   inkscape:version="1.4 (e7c3feb100, 2024-10-09)"
   sodipodi:docname="org.gnome.Nautilus.svg"
   xml:space="preserve"
   xmlns:inkscape="http://www.inkscape.org/namespaces/inkscape"
   xmlns:sodipodi="http://sodipodi.sourceforge.net/DTD/sodipodi-0.dtd"
   xmlns:xlink="http://www.w3.org/1999/xlink"
   xmlns="http://www.w3.org/2000/svg"
   xmlns:svg="http://www.w3.org/2000/svg"><sodipodi:namedview
     id="namedview7"
     pagecolor="#ffffff"
     bordercolor="#666666"
     borderopacity="1"
     inkscape:pageshadow="2"
     inkscape:pageopacity="0.0"
     inkscape:pagecheckerboard="true"
     inkscape:document-units="px"
     showgrid="false"
     inkscape:showpageshadow="false"
     showborder="true"
     inkscape:snap-page="true"
     inkscape:zoom="2.285034"
     inkscape:cx="-18.38047"
     inkscape:cy="104.81244"
     inkscape:window-width="1920"
     inkscape:window-height="1043"
     inkscape:window-x="0"
     inkscape:window-y="0"
     inkscape:window-maximized="1"
     inkscape:current-layer="layer2"
     inkscape:snap-bbox="true"
     inkscape:bbox-nodes="true"
     inkscape:bbox-paths="true"
     inkscape:snap-bbox-edge-midpoints="true"
     inkscape:snap-bbox-midpoints="true"
     inkscape:object-paths="true"
     inkscape:snap-intersection-paths="true"
     inkscape:deskcolor="#d1d1d1" /><defs
     id="defs2"><linearGradient
       inkscape:collect="always"
       id="linearGradient406"><stop
         style="stop-color:#c8e0fd;stop-opacity:1;"
         offset="0"
         id="stop402" /><stop
         style="stop-color:#8dc4fb;stop-opacity:1"
         offset="1"
         id="stop404" /></linearGradient><linearGradient
       inkscape:collect="always"
       id="linearGradient364"><stop
         style="stop-color:#8dc4fb;stop-opacity:1;"
         offset="0"
         id="stop360" /><stop
         style="stop-color:#74afef;stop-opacity:1"
         offset="1"
         id="stop362" /></linearGradient><linearGradient
       inkscape:collect="always"
       id="linearGradient5168"><stop
         style="stop-color:#2862a9;stop-opacity:1;"
         offset="0"
         id="stop5164" /><stop
         style="stop-color:#2862a9;stop-opacity:1;"
         offset="0"
         id="stop5462" /><stop
         style="stop-color:#2862a9;stop-opacity:1;"
         offset="0.88639259"
         id="stop5722" /><stop
         style="stop-color:#337cd7;stop-opacity:1;"
         offset="0.94881046"
         id="stop5592" /><stop
         style="stop-color:#2862a9;stop-opacity:1;"
         offset="1"
         id="stop5166" /></linearGradient><linearGradient
       y2="236"
       x2="96"
       y1="236"
       x1="32"
       gradientTransform="translate(604.81684,170.58641)"
       gradientUnits="userSpaceOnUse"
       id="linearGradient1099"
       xlink:href="#linearGradient1036" /><linearGradient
       id="linearGradient1036"><stop
         id="stop1032"
         offset="0"
         style="stop-color:#d5d3cf;stop-opacity:1;" /><stop
         id="stop1034"
         offset="1"
         style="stop-color:#f6f5f4;stop-opacity:1" /></linearGradient><radialGradient
       r="32"
       fy="-76"
       fx="-244"
       cy="-76"
       cx="-244"
       gradientTransform="matrix(0.88333331,0,0,0.88333331,-460.35018,463.11973)"
       gradientUnits="userSpaceOnUse"
       id="radialGradient1103"
       xlink:href="#linearGradient1069" /><linearGradient
       id="linearGradient1069"><stop
         id="stop1065"
         offset="0"
         style="stop-color:#d5d3cf;stop-opacity:1" /><stop
         id="stop1067-1"
         offset="1"
         style="stop-color:#949390;stop-opacity:1" /></linearGradient><linearGradient
       gradientUnits="userSpaceOnUse"
       y2="232"
       x2="64"
       y1="262.5"
       x1="64"
       id="linearGradient1027"
       xlink:href="#linearGradient1025"
       gradientTransform="translate(-470.5864,432.81685)" /><linearGradient
       id="linearGradient1025"><stop
         id="stop1021"
         offset="0"
         style="stop-color:#9a9996;stop-opacity:1" /><stop
         id="stop1023"
         offset="1"
         style="stop-color:#77767b;stop-opacity:1" /></linearGradient><inkscape:path-effect
       effect="spiro"
       id="path-effect35304-9"
       is_visible="true" /><clipPath
       clipPathUnits="userSpaceOnUse"
       id="clipPath1609-7"><path
         sodipodi:nodetypes="cccccc"
         inkscape:connector-curvature="0"
         id="path1611-5"
         d="m 252,116 28,-28 v -8 h -36 v 36 z"
         style="fill:#e74747;stroke:none;stroke-width:0.25px;stroke-linecap:butt;stroke-linejoin:miter;stroke-opacity:1" /></clipPath><radialGradient
       r="32"
       fy="-76"
       fx="-244"
       cy="-76"
       cx="-244"
       gradientTransform="matrix(0.88333331,0,0,0.88333331,-460.35018,463.11973)"
       gradientUnits="userSpaceOnUse"
       id="radialGradient1103-5"
       xlink:href="#linearGradient1069" /><inkscape:path-effect
       effect="spiro"
       id="path-effect35304-9-2"
       is_visible="true" /><clipPath
       clipPathUnits="userSpaceOnUse"
       id="clipPath1609-7-7"><path
         sodipodi:nodetypes="cccccc"
         inkscape:connector-curvature="0"
         id="path1611-5-0"
         d="m 252,116 28,-28 v -8 h -36 v 36 z"
         style="fill:#e74747;stroke:none;stroke-width:0.25px;stroke-linecap:butt;stroke-linejoin:miter;stroke-opacity:1" /></clipPath><clipPath
       clipPathUnits="userSpaceOnUse"
       id="clipPath744"><rect
         style="fill:#1e88e5;fill-opacity:1;stroke-width:0.264583"
         id="rect746"
         width="541.86664"
         height="541.86664"
         x="0"
         y="1.5987212e-14"
         rx="79.375"
         ry="79.375" /></clipPath><clipPath
       clipPathUnits="userSpaceOnUse"
       id="clipPath62"><rect
         style="fill:#1e88e5;fill-opacity:1;stroke-width:0.264583"
         id="rect64"
         width="541.86664"
         height="541.86664"
         x="2.2507105e-05"
         y="-0.42205024"
         rx="79.375"
         ry="79.375" /></clipPath><radialGradient
       r="32"
       fy="-76"
       fx="-244"
       cy="-76"
       cx="-244"
       gradientTransform="matrix(0.88333331,0,0,0.88333331,-460.35018,463.11973)"
       gradientUnits="userSpaceOnUse"
       id="radialGradient1103-6"
       xlink:href="#linearGradient1069" /><inkscape:path-effect
       effect="spiro"
       id="path-effect35304-9-20"
       is_visible="true" /><clipPath
       clipPathUnits="userSpaceOnUse"
       id="clipPath1609-7-2"><path
         sodipodi:nodetypes="cccccc"
         inkscape:connector-curvature="0"
         id="path1611-5-3"
         d="m 252,116 28,-28 v -8 h -36 v 36 z"
         style="fill:#e74747;stroke:none;stroke-width:0.25px;stroke-linecap:butt;stroke-linejoin:miter;stroke-opacity:1" /></clipPath><clipPath
       clipPathUnits="userSpaceOnUse"
       id="clipPath1056"><rect
         style="fill:#64b5f6;fill-opacity:1;stroke-width:0.264583"
         id="rect1058"
         width="541.86664"
         height="541.86664"
         x="-1.1368684e-13"
         y="3.1816406e-05"
         rx="79.375"
         ry="79.375" /></clipPath><clipPath
       clipPathUnits="userSpaceOnUse"
       id="clipPath261"><rect
         style="fill:#64b5f6;fill-opacity:1;stroke-width:0.264583"
         id="rect263"
         width="541.86664"
         height="541.86664"
         x="0"
         y="3.1816406e-05"
         rx="79.375"
         ry="79.375" /></clipPath><clipPath
       clipPathUnits="userSpaceOnUse"
       id="clipPath3004"><rect
         style="fill:#90caf9;fill-opacity:1;stroke-width:0.264583"
         id="rect3006"
         width="541.86664"
         height="541.86664"
         x="0"
         y="-2.6645351e-14"
         rx="79.375"
         ry="79.375" /></clipPath><clipPath
       clipPathUnits="userSpaceOnUse"
       id="clipPath823"><path
         id="path825"
         style="fill:#999999;stroke-width:3.26374"
         d="M 52.916667,2.9771875e-6 C 23.600833,2.9771875e-6 7.9999835e-8,23.600836 7.9999835e-8,52.916667 V 157.92266 488.95 541.86667 H 52.916667 383.94452 488.95 c 29.31584,0 52.91667,-23.60086 52.91667,-52.91667 V 52.916667 C 541.86667,23.600836 518.26584,2.9771875e-6 488.95,2.9771875e-6 Z" /></clipPath><radialGradient
       r="32"
       fy="-76"
       fx="-244"
       cy="-76"
       cx="-244"
       gradientTransform="matrix(0.88333331,0,0,0.88333331,-460.35018,463.11973)"
       gradientUnits="userSpaceOnUse"
       id="radialGradient1103-56"
       xlink:href="#linearGradient1069" /><inkscape:path-effect
       effect="spiro"
       id="path-effect35304-9-7"
       is_visible="true" /><clipPath
       clipPathUnits="userSpaceOnUse"
       id="clipPath1609-7-0"><path
         sodipodi:nodetypes="cccccc"
         inkscape:connector-curvature="0"
         id="path1611-5-9"
         d="m 252,116 28,-28 v -8 h -36 v 36 z"
         style="fill:#e74747;stroke:none;stroke-width:0.25px;stroke-linecap:butt;stroke-linejoin:miter;stroke-opacity:1" /></clipPath><radialGradient
       r="32"
       fy="-76"
       fx="-244"
       cy="-76"
       cx="-244"
       gradientTransform="matrix(0.88333331,0,0,0.88333331,-460.35018,463.11973)"
       gradientUnits="userSpaceOnUse"
       id="radialGradient1103-5-3"
       xlink:href="#linearGradient1069" /><inkscape:path-effect
       effect="spiro"
       id="path-effect35304-9-2-6"
       is_visible="true" /><clipPath
       clipPathUnits="userSpaceOnUse"
       id="clipPath1609-7-7-0"><path
         sodipodi:nodetypes="cccccc"
         inkscape:connector-curvature="0"
         id="path1611-5-0-6"
         d="m 252,116 28,-28 v -8 h -36 v 36 z"
         style="fill:#e74747;stroke:none;stroke-width:0.25px;stroke-linecap:butt;stroke-linejoin:miter;stroke-opacity:1" /></clipPath><clipPath
       clipPathUnits="userSpaceOnUse"
       id="clipPath744-2"><rect
         style="fill:#1e88e5;fill-opacity:1;stroke-width:0.264583"
         id="rect746-6"
         width="541.86664"
         height="541.86664"
         x="0"
         y="1.5987212e-14"
         rx="79.375"
         ry="79.375" /></clipPath><clipPath
       clipPathUnits="userSpaceOnUse"
       id="clipPath62-1"><rect
         style="fill:#1e88e5;fill-opacity:1;stroke-width:0.264583"
         id="rect64-8"
         width="541.86664"
         height="541.86664"
         x="2.2507105e-05"
         y="-0.42205024"
         rx="79.375"
         ry="79.375" /></clipPath><radialGradient
       r="32"
       fy="-76"
       fx="-244"
       cy="-76"
       cx="-244"
       gradientTransform="matrix(0.88333331,0,0,0.88333331,-460.35018,463.11973)"
       gradientUnits="userSpaceOnUse"
       id="radialGradient1103-6-7"
       xlink:href="#linearGradient1069" /><inkscape:path-effect
       effect="spiro"
       id="path-effect35304-9-20-9"
       is_visible="true" /><clipPath
       clipPathUnits="userSpaceOnUse"
       id="clipPath1609-7-2-2"><path
         sodipodi:nodetypes="cccccc"
         inkscape:connector-curvature="0"
         id="path1611-5-3-0"
         d="m 252,116 28,-28 v -8 h -36 v 36 z"
         style="fill:#e74747;stroke:none;stroke-width:0.25px;stroke-linecap:butt;stroke-linejoin:miter;stroke-opacity:1" /></clipPath><linearGradient
       inkscape:collect="always"
       xlink:href="#linearGradient5168"
       id="linearGradient5426"
       x1="11.503906"
       y1="68.358396"
       x2="116.49609"
       y2="68.358396"
       gradientUnits="userSpaceOnUse" /><filter
       style="color-interpolation-filters:sRGB;"
       inkscape:label="Drop Shadow"
       id="filter1686"
       x="-0.020582915"
       y="-0.029811576"
       width="1.0411658"
       height="1.0596232"><feFlood
         flood-opacity="0.701961"
         flood-color="rgb(255,255,255)"
         result="flood"
         id="feFlood1676" /><feComposite
         in="flood"
         in2="SourceGraphic"
         operator="out"
         result="composite1"
         id="feComposite1678" /><feGaussianBlur
         in="composite1"
         stdDeviation="0.9"
         result="blur"
         id="feGaussianBlur1680" /><feOffset
         dx="0"
         dy="2.77556e-17"
         result="offset"
         id="feOffset1682" /><feComposite
         in="offset"
         in2="SourceGraphic"
         operator="atop"
         result="composite2"
         id="feComposite1684" /></filter><linearGradient
       inkscape:collect="always"
       xlink:href="#linearGradient364"
       id="linearGradient941"
       gradientUnits="userSpaceOnUse"
       x1="69.085938"
       y1="110.2207"
       x2="69.085938"
       y2="48.154297"
       gradientTransform="matrix(0.96088231,0,0,0.96088231,2.5045253,2.8944416)" /><linearGradient
       inkscape:collect="always"
       xlink:href="#linearGradient406"
       id="linearGradient408"
       x1="63.786434"
       y1="38.314331"
       x2="63.786434"
       y2="110.05236"
       gradientUnits="userSpaceOnUse" /></defs><g
     inkscape:groupmode="layer"
     id="layer2"
     inkscape:label="Layer 1"><path
       id="path864"
       style="fill:#3b76ba;fill-opacity:1;stroke-width:0.0656055"
       d="m 21.756476,8.4523672 c -5.680229,0 -10.253122,4.7929148 -10.253122,10.7464468 v 7.272742 27.778412 4.705558 48.794014 0.78709 9.95936 H 21.756476 65.617713 106.2422 c 5.68023,0 10.25313,-4.44188 10.25313,-9.95936 v -0.78709 -48.147234 -33.13075 c 0,-5.517482 -4.5729,-9.959353 -10.25313,-9.959353 H 53.48989 L 45.800048,8.4523672 Z" /><path
       id="path1128"
       style="fill:url(#linearGradient5426);fill-opacity:1;stroke-width:0.0656055"
       d="M 11.550781 18.220703 C 11.523184 18.543459 11.503906 18.868686 11.503906 19.199219 L 11.503906 26.470703 L 11.503906 54.25 L 11.503906 58.955078 L 11.503906 107.75 L 11.503906 108.53711 L 11.503906 118.49609 L 21.755859 118.49609 L 65.617188 118.49609 L 106.24219 118.49609 C 111.92242 118.49609 116.49609 114.05459 116.49609 108.53711 L 116.49609 107.75 L 116.49609 62.876953 L 11.550781 62.876953 L 11.550781 18.220703 z " /><rect
       style="fill:#ffffff;fill-opacity:1;stroke-width:1.36295"
       id="rect7882"
       width="87.73497"
       height="43.873138"
       x="20.131855"
       y="26.217728"
       rx="6.0608001"
       ry="4.9039226" /><path
       id="path854"
       style="fill:url(#linearGradient408);fill-opacity:1;stroke-width:0.0539511"
       d="M 76.771484,37.765625 69.085938,48.154297 H 21.802734 c -5.677422,0 -10.248046,4.965946 -10.248046,8.648437 v 13.679688 6 27.091798 6 0.64648 h 10.248046 43.839844 40.605472 c 5.67745,0 10.24804,-2.96399 10.24804,-6.64648 v -34.039064 -6 -8.732422 -5.765625 c 0,-4.028157 -4.57061,-11.271484 -10.24804,-11.271484 z"
       sodipodi:nodetypes="ccsscccccccsscccssc" /><path
       id="path1749"
       style="fill:#b4cae4;fill-opacity:1;stroke-width:0.0656055"
       d="M 21.755859 8.453125 C 16.075636 8.453125 11.503906 13.245693 11.503906 19.199219 L 11.503906 21.199219 C 11.503906 15.245693 16.075636 10.453125 21.755859 10.453125 L 45.800781 10.453125 L 53.490234 18.511719 L 106.24219 18.511719 C 111.92241 18.511719 116.49609 22.953227 116.49609 28.470703 L 116.49609 26.470703 C 116.49609 20.953227 111.92241 16.511719 106.24219 16.511719 L 53.490234 16.511719 L 45.800781 8.453125 L 21.755859 8.453125 z " /><path
       id="path939"
       style="fill:url(#linearGradient941);fill-opacity:1;stroke-width:0.0518407"
       d="m 76.272886,39.182763 -7.384905,9.982291 H 23.454387 c -5.455335,0 -9.847166,4.771689 -9.847166,8.31013 v 13.14457 5.765294 26.032032 5.76529 0.62119 h 9.847166 42.12493 39.017083 c 5.45536,0 9.84716,-2.84804 9.84716,-6.38648 v -32.707537 -5.765294 -8.39083 -5.540087 c 0,-3.870585 -4.39182,-10.830569 -9.84716,-10.830569 z"
       sodipodi:nodetypes="ccsscccccccsscccssc" /></g></svg>

<svg xmlns="http://www.w3.org/2000/svg" xmlns:xlink="http://www.w3.org/1999/xlink" xml:space="preserve" width="128" height="128" viewBox="0 0 128 128">
    <defs>
        <linearGradient id="c">
            <stop offset="0" style="stop-color:#c8e0fd;stop-opacity:1"/>
            <stop offset="1" style="stop-color:#8dc4fb;stop-opacity:1"/>
        </linearGradient>
        <linearGradient id="b">
            <stop offset="0" style="stop-color:#8dc4fb;stop-opacity:1"/>
            <stop offset="1" style="stop-color:#74afef;stop-opacity:1"/>
        </linearGradient>
        <linearGradient id="a">
            <stop offset="0" style="stop-color:#2862a9;stop-opacity:1"/>
            <stop offset="0" style="stop-color:#2862a9;stop-opacity:1"/>
            <stop offset=".886" style="stop-color:#2862a9;stop-opacity:1"/>
            <stop offset=".949" style="stop-color:#337cd7;stop-opacity:1"/>
            <stop offset="1" style="stop-color:#2862a9;stop-opacity:1"/>
        </linearGradient>
        <linearGradient xlink:href="#a" id="g" x1="11.504" x2="116.496" y1="68.358" y2="68.358" gradientUnits="userSpaceOnUse"/>
        <linearGradient xlink:href="#b" id="i" x1="69.086" x2="69.086" y1="110.221" y2="48.154" gradientTransform="translate(2.505 2.894)scale(.96088)" gradientUnits="userSpaceOnUse"/>
        <linearGradient xlink:href="#c" id="h" x1="63.786" x2="63.786" y1="38.314" y2="110.052" gradientUnits="userSpaceOnUse"/>
    </defs>
    <path d="M21.756 8.452c-5.68 0-10.253 4.793-10.253 10.747v99.297h94.739c5.68 0 10.253-4.442 10.253-9.96V26.473c0-5.518-4.573-9.96-10.253-9.96H53.49l-7.69-8.06Z" style="fill:#3b76ba;fill-opacity:1;stroke-width:.0656055"/>
    <path d="M11.55 18.22c-.027.323-.046.649-.046.98v99.297h94.738c5.68 0 10.254-4.442 10.254-9.96v-45.66H11.551z" style="fill:url(#g);fill-opacity:1;stroke-width:.0656055"/>
    <rect width="87.735" height="43.873" x="20.132" y="26.218" rx="6.061" ry="4.904" style="fill:#fff;fill-opacity:1;stroke-width:1.36295"/>
    <path d="m76.771 37.766-7.685 10.388H21.803c-5.678 0-10.248 4.966-10.248 8.649v53.418h94.693c5.678 0 10.248-2.964 10.248-6.647V49.037c0-4.028-4.57-11.271-10.248-11.271z" style="fill:url(#h);fill-opacity:1;stroke-width:.0539511"/>
    <path d="M21.756 8.453c-5.68 0-10.252 4.793-10.252 10.746v2c0-5.953 4.572-10.746 10.252-10.746H45.8l7.69 8.059h52.751c5.68 0 10.254 4.441 10.254 9.959v-2c0-5.518-4.574-9.96-10.254-9.96H53.49L45.8 8.454z" style="fill:#b4cae4;fill-opacity:1;stroke-width:.0656055"/>
    <path d="m76.273 39.183-7.385 9.982H23.454c-5.455 0-9.847 4.772-9.847 8.31v51.329h90.989c5.456 0 9.848-2.848 9.848-6.387V50.014c0-3.871-4.392-10.831-9.848-10.831z" style="fill:url(#i);fill-opacity:1;stroke-width:.0518407"/>
</svg>
